X:1
T:Title
%%score { ( 1 3 ) | ( 2 4 ) }
L:1/8
M:4/4
K:G
V:1 treble nm="Grand Piano"
V:3 treble 
V:2 treble 
V:4 treble 
V:1
 z4 z z/[Q:1/4=100] D/ G>A | B6 z2 | d6 z2 | A6 z2 | B6 z2 | B6 z2 | d6 z2 | A3 A B2 [G^c]2 | %8
[M:11/16] d/-d/-d/-d/-d/-d/-d/-d-<d |[M:5/16] [Bd]<[ce][Bd]/ | %10
[M:4/4] [Bd]>[Ac] [Ac]2- [Ac]>[Ac] [DBd]>[DAc] |[M:3/4] [DAc]>[DGB] [DGB]4 |[M:1/4] B2 | %13
[M:4/4] A3- A/B/ c>B c>[Fe] | d6 z2 | [EBd]>[EAc] [EAc]2- [EAc]>[^DAc] [=DAd]>[Fc] | %16
 [Gc]>[GB] [GB]4 [=FB]2 | [EB][EA][Ec][A,EA] [B,DG]2 [CDF]2 | %18
[M:11/16] [B,DG]/-[B,DG]/-[B,DG]/-[B,DG]/-[B,DG]/-[B,DG]/-[B,DG]/-[B,DG]-<[B,DG] |] %19
V:2
 z4 z2 B,>D | G6 z2 | B6 z2 | F6[K:bass][K:treble] z2 | G6[K:bass] z2 | G6 z2 | B6 z2 | %7
 [A,DF]3[K:bass] G, F,2 [E,A,]2 |[M:11/16] A,>B,C>B,A,3/2 |[M:5/16] G,<G,[G,B,]/ | %10
[M:4/4] [D,D]>[D,D] F,>A, D>D F,>F, |[M:3/4] G,>G,, B,,>D, G,2 |[M:1/4][K:treble] [B,DG]2 | %13
[M:4/4] [CDF]3- [CDF]/[B,DG]/ [A,EA]>[K:bass][^G,DE] [A,CE]>[D,A,] | %14
 [G,B,G]2 B,>D =F>B[K:bass] G,>G, | C,>C, C,>E, A,>G, F,>[^D,A,] | [E,G,]>[E,G,] [E,G,]4 [D,G,]2 | %17
 [C,G,][C,G,][A,,G,]C, D,2 D,2 |[M:11/16] G,,/-G,,/-G,,/-G,,/-G,,/-G,,/-G,,/-G,,-<G,, |] %19
V:3
 x8 | z z/ D/ D>D D>A B>c | z z/ D/ D>D D>B c>B | z z/ D/ D>D D>c B>A | z z/ D/ D>D D>D G>A | %5
 z z/ D/ D>D D>A B>c | z z/ D/ D>D D>d ^c>B | x8 |[M:11/16] F>GA>Bc3/2 |[M:5/16] x5/2 | %10
[M:4/4] z2 D2 z4 |[M:3/4] x6 |[M:1/4] x2 |[M:4/4] x8 | z z/ D/ G>c B>d [=FBe]>[FBd] | x8 | x8 | %17
 x8 |[M:11/16] x11/2 |] %19
V:4
 x8 | z z/ G,/ G,>G, G,>F G>A | z z/ G,/ G,>G, G,>G A>G | %3
 z z/[K:bass] D,/ D,>D, D,>[K:treble]A G>F | z z/ G,/[K:bass] G,>G, G,2 B,>D | %5
 z z/ G,/ G,>G, G,>F G>A | z z/ G,/ G,>G, G,>[G,B,G] [G,EG]>[^G,D=F] | x3[K:bass] x5 | %8
[M:11/16] D,/-D,/-D,/-D,/-D,/-D,/-D,/-D,-<D, |[M:5/16] x5/2 |[M:4/4] x8 |[M:3/4] x6 | %12
[M:1/4][K:treble] x2 |[M:4/4] x11/2[K:bass] x5/2 | z z/ G,/- G,2- G,3/2 z/[K:bass] z2 | x8 | x8 | %17
 x8 |[M:11/16] x11/2 |] %19

